X:1
T: Pat Rivers' Reel
C:Bruce Shawyer
R:Reel
Q:232
K:G
M:4/4
L:1/8
d|:"G"B2BA G2B2|"Am"A2cB "D7"A2dc|"G"B2d2 d2B2|"D7"D2F2 A2dc|
"G"B2BA G2B2|"Am"A2cB "D7"A2dc|"Em"G2B2 "D7"cBAc|1"G"B2G2 G2dc:|2"G"B2G2 G2Bc|
|:"G"d2g2 g2ab|"Am"c'bag "D7"e2d2|"Em"b2g2 g2ab|"Am"c'bag "D7"f2d2|
"G"b2ba g2d2|"Am"e2ed c2e2|"D7"f2d2 dcAF|1"G"G2G2 G2Bc:|2"G"G2G2 G2||
